!!!COM: Paul Hindemith
!!!OTL: [T663_Hin-w99p106m171-177]
**kern	**dynam	**kern	**dynam	**kern	**dynam	**kern	**dynam	**kern	**dynam	**kern	**dynam	**kern	**dynam	**kern	**dynam
*grp:A	*	*grp:A	*	*grp:A	*	*grp:A	*	*grp:A	*	*grp:A	*	*grp:B	*	*grp:B	*
*part8	*part8	*part7	*part7	*part6	*part6	*part5	*part5	*part4	*part4	*part3	*	*part2	*	*part1	*part1
*staff8	*	*staff7	*	*staff6	*	*staff5	*	*staff4	*	*staff3	*	*staff2	*	*staff1	*
*I"Contrabass	*	*I"Violoncello	*	*I"Viola II	*	*I"Viola I	*	*I"Violin	*	*I"Horn in F	*	*I"Bassoon	*	*I"Clarinet in Bb	*
*I'Cb.	*	*I'Vc.	*	*I'Vla.	*	*I'Vla.	*	*I'Vln.	*	*I'Hn.	*	*	*	*I'Cl.	*
*ICstr	*	*ICstr	*	*ICstr	*	*ICstr	*	*ICstr	*	*ICbras	*	*ICww	*	*ICww	*
*Icbass	*	*Icello	*	*Iviola	*	*Iviola	*	*Ivioln	*	*Icor	*	*Ifagot	*	*Iclars	*
*clefF4	*	*clefG2	*	*clefC3	*	*clefG2	*	*clefG2	*	*clefF4	*	*clefF4	*	*clefG2	*
*ITrd7c12	*	*	*	*	*	*	*	*	*	*ITrd-3c-5	*	*	*	*ITrd1c2	*
*k[]	*	*k[]	*	*k[]	*	*k[]	*	*k[]	*	*k[b-]	*	*k[]	*	*k[b-e-]	*
*	*	*	*	*	*	*	*	*	*	*	*	*	*	*	*
*M3/8	*	*M3/8	*	*M3/8	*	*M3/8	*	*M3/8	*	*M3/8	*	*M3/8	*	*M3/8	*
=1	=1	=1	=1	=1	=1	=1	=1	=1	=1	=1	=1	=1	=1	=1	=1
!LO:TX:a:t=[pizz.]	!LO:DY:ed=brack	!	!LO:DY:ed=brack	!LO:TX:a:t=[pizz.]	!	!LO:TX:a:t=[pizz.]	!	!LO:TX:a:t=[pizz.]	!	!	!LO:DY:ed=brack	!	!LO:DY:ed=brack	!LO:TX:t=[[eighth]=184]	!LO:DY:ed=brack
8EE-X)j	4ryy	4an)j	4ryy	8r	.	8r	.	8r	.	8E-X	4ryy	8ryy	4ryy	8ryy	4ryy
!	!	!	!	!	!LO:DY:ed=brack	!	!LO:DY:ed=brack	!	!LO:DY:ed=brack	!	!	!	!	!	!
8r	.	.	.	8f#X	4ryy	8ff#X	4ryy	8fff#X	4ryy	8r	.	8ryy	.	8ryy	.
*	*	*clefC4	*	*	*	*	*	*	*	*	*	*	*	*	*
8r	.	(8e	.	8r	.	8r	.	8r	.	8r	.	16ryy	.	16ryy	.
.	.	.	.	.	.	.	.	.	.	.	.	16ryy	.	16ryy	.
=2	=2	=2	=2	=2	=2	=2	=2	=2	=2	=2	=2	=2	=2	=2	=2
8EE-X	.	8gL	.	8r	.	8r	.	8r	.	8E-X	.	8ryy	.	8ryy	.
8r	.	8f	.	8e	.	8ee	.	8eee	.	8r	.	16ryy	.	16ryy	.
.	.	.	.	.	.	.	.	.	.	.	.	16ryy	.	16ryy	.
8r	.	8eJ)	.	8r	.	8r	.	8r	.	8r	.	8ryy	.	8ryy	.
=3	=3	=3	=3	=3	=3	=3	=3	=3	=3	=3	=3	=3	=3	=3	=3
8EE-X	.	(8Bn	.	8r	.	8r	.	8r	.	8E-X	.	16ryy	.	16ryy	.
.	.	.	.	.	.	.	.	.	.	.	.	16ryy	.	16ryy	.
8r	.	4c)	.	8e-X	.	8ee-X	.	8eee-X	.	8r	.	8ryy	.	8ryy	.
8r	.	.	.	8r	.	8r	.	8r	.	8r	.	16ryy	.	16ryy	.
.	.	.	.	.	.	.	.	.	.	.	.	16ryy	.	16ryy	.
*	*	*clefF4	*	*	*	*clefC3	*	*	*	*	*	*	*	*	*
=4||	=4||	=4||	=4||	=4||	=4||	=4||	=4||	=4||	=4||	=4||	=4||	=4||	=4||	=4||	=4||
*M2/4	*	*M2/4	*	*M2/4	*	*M2/4	*	*M2/4	*	*M2/4	*	*M2/4	*	*M2/4	*
!LO:TX:a:t=arco	!	!	!	!LO:TX:a:t=arco	!	!LO:TX:a:t=arco	!	!LO:TX:a:t=arco	!	!	!	!	!	!LO:TX:a:B:t=Polka ([quarter] etwa 92)	!
8AAA-X'u	4ryy	8AA-X'u	4ryy	8r	.	8r	.	8r	.	2r	.	8ryy	.	8ryy	.
8r	.	8r	.	(4E-Xu	4ryy	(4c-Xu	4ryy	4.A-Xu	4ryy	.	.	8ryy	.	8ryy	.
.	.	.	.	.	.	.	.	.	.	.	.	.	.	16ryy	4ryy
.	.	.	.	.	.	.	.	.	.	.	.	.	.	16ryy	.
8FFF'u	.	8FF'u	.	.	.	.	.	.	.	.	.	4ryy	.	8ryy	.
.	.	.	.	.	.	8qf-X/	4ryy	.	.	.	.	.	.	.	.
8r	.	8r	.	8F)	4ryy	8e-X)	.	.	.	.	.	.	.	8ryy	.
=5	=5	=5	=5	=5	=5	=5	=5	=5	=5	=5	=5	=5	=5	=5	=5
8EE-X'u	.	8E-X'u	.	8r	.	8r	.	8r	.	2r	.	2ryy	.	4.ryy	.
.	.	.	.	.	.	(8qe-X/	.	.	.	.	.	.	.	.	.
8r	.	8r	.	16G-XvLL	.	16d-XvLL)	.	(8A-Xv	.	.	.	.	.	.	.
.	.	.	.	16FJJ	.	16cnJJ	.	.	.	.	.	.	.	.	.
8r	.	8r	.	(8.G-L	4ryy	(4d-	4ryy	4d-X	4ryy	.	.	.	.	.	.
.	.	.	.	.	.	.	.	.	.	.	.	.	.	16ryy	.
.	.	.	.	.	.	.	.	.	.	.	.	.	.	16ryy	.
(8CCu	.	(8Cu	.	.	.	.	.	.	.	.	.	.	.	8ryy	.
.	.	.	.	16A-XJk	4ryy	.	.	.	.	.	.	.	.	.	.
=6	=6	=6	=6	=6	=6	=6	=6	=6	=6	=6	=6	=6	=6	=6	=6
8AAA-X)	.	8AA-X)	.	16.B-XLL)	.	16.g-XLL)	.	16.e-XLL)	.	2r	.	2ryy	.	4ryy	.
.	.	.	.	(32c-XJJk	.	(32a-XJJk	.	(32f-XJJk	.	.	.	.	.	.	.
8r	.	8r	.	4.B-)	4ryy	4g-)	.	4.e-	4ryy	.	.	.	.	.	.
.	.	.	.	.	.	.	.	.	.	.	.	.	.	16ryy	.
.	.	.	.	.	.	.	.	.	.	.	.	.	.	16ryy	.
8FFFn'u	.	8FFn'u	.	.	.	.	.	.	.	.	.	.	.	8ryy	.
8r	.	8r	.	.	.	[8f-X	4ryy	.	.	.	.	.	.	8ryy	.
=7	=7	=7	=7	=7	=7	=7	=7	=7	=7	=7	=7	=7	=7	=7	=7
8GG-X'u	.	8G-X'u	.	4.A-X	4ryy	8f-L]	4ryy	4.d-X)	4ryy	2r	.	2ryy	.	8ryy	.
.	.	.	.	.	.	.	.	.	.	.	.	.	.	16ryy	.
.	.	.	.	.	.	.	.	.	.	.	.	.	.	16ryy	.
8r	.	8r	.	.	.	16e-XL	.	.	.	.	.	.	.	8ryy	.
.	.	.	.	.	.	16dnJJ	.	.	.	.	.	.	.	.	.
8r	.	8r	.	.	.	8.e-L	4ryy	.	.	.	.	.	.	4ryy	.
(8BB-Xui	4ryy	(8B-Xui	4ryy	(8B-Xi	4ryy	.	.	(8e-Xi	4ryy	.	.	.	.	.	.
.	.	.	.	.	.	(16g-XJki	4ryy	.	.	.	.	.	.	.	.
=	=	=	=	=	=	=	=	=	=	=	=	=	=	=	=
*-	*-	*-	*-	*-	*-	*-	*-	*-	*-	*-	*-	*-	*-	*-	*-
!!!system-decoration: [(s1,s2,s3)][(s4[(s5,s6)]s7,s8)]
!!!Xfilter: slurcheck
!!!RDF**kern: i = marked note, color="hotpink", text="extra("
!!!RDF**kern: j = marked note, color="magenta", text="extra)"
